icons/term-active-status.svg

<svg
  xmlns="http://www.w3.org/2000/svg"
  viewBox="0 0 500 500"
  width="500"
  height="500"
  fill="#ffffff"
>
  <polygon points="316.6 410.9 381.4 365.1 316.6 319.4 316.6 410.9" />
  <path d="M214.5 69.5a17.6 17.6 0 0 0-15.9 10.2h31.7a17.5 17.5 0 0 0-15.8-10.2z" />
  <path d="M250 5C114.7 5 5 114.7 5 250s109.7 245 245 245 245-109.7 245-245S385.3 5 250 5zM111.3 417.2a31.6 31.6 0 0 1-31.7-31.6V115a31.6 31.6 0 0 1 31.7-31.6h71.5a31.9 31.9 0 0 1 63.4 0h66.3a31.7 31.7 0 0 1 31.7 31.6v161.3c-2.7-.2-5.3-.3-8-.3s-4.8.1-7.2.3V115a16.4 16.4 0 0 0-16.5-16.4H111.3A16.4 16.4 0 0 0 94.8 115v270.6a16.4 16.4 0 0 0 16.5 16.4h141.6a96.8 96.8 0 0 0 8.2 15.2zm134.4-47.5h-65.6a7.6 7.6 0 0 1-7.6-7.6v-.7a7.6 7.6 0 0 1 7.6-7.7h66.4a90.7 90.7 0 0 0-.9 12.8c0 1.1 0 2.2.1 3.2zM180.4 335a7.7 7.7 0 0 1-7.1-7.1 7.8 7.8 0 0 1 7.1-8.7h78.5a91.9 91.9 0 0 0-7.6 15.8zm.1-61.6a8.1 8.1 0 0 1 0-16.1H271a8.1 8.1 0 0 1 0 16.1zm-.1-34.8a7.9 7.9 0 0 1 0-15.8h127.2a7.8 7.8 0 0 1 7.8 7.9 7.9 7.9 0 0 1-7.9 7.9zm-7.9-69.7a8 8 0 0 1 8-8H271a8 8 0 0 1 0 16h-90.5a8 8 0 0 1-8-8zm135-26.7H180.4a7.9 7.9 0 0 1 0-15.8h127.1a7.9 7.9 0 0 1 0 15.8zM108.4 273.3v-50.5h50.5v50.5zm50.5 45.9v50.6h-50.5v-50.6zM108.4 177v-50.6h50.5V177zm232.2 268a79.8 79.8 0 1 1 79.8-79.8 79.8 79.8 0 0 1-79.8 79.8z" />
</svg>

<svg xmlns="http://www.w3.org/2000/svg" viewBox="0 0 500 500">
  <g id="term-active-status">
    <polygon id="play" points="316.6 410.9 381.4 365.1 316.6 319.4 316.6 410.9"/>
    <path id="inside-outline" d="M214.5,69.5a17.6,17.6,0,0,0-15.9,10.2h31.7A17.5,17.5,0,0,0,214.5,69.5Z"/>
    <path id="outline" d="M250,5C114.7,5,5,114.7,5,250S114.7,495,250,495,495,385.3,495,250,385.3,5,250,5ZM111.3,417.2a31.6,31.6,0,0,1-31.7-31.6V115a31.6,31.6,0,0,1,31.7-31.6h71.5a31.9,31.9,0,0,1,63.4,0h66.3A31.7,31.7,0,0,1,344.2,115V276.3c-2.7-.2-5.3-.3-8-.3s-4.8.1-7.2.3V115h0a16.4,16.4,0,0,0-16.5-16.4H111.3A16.4,16.4,0,0,0,94.8,115V385.6A16.4,16.4,0,0,0,111.3,402H252.9a96.8,96.8,0,0,0,8.2,15.2Zm134.4-47.5H180.1a7.6,7.6,0,0,1-7.6-7.6v-.7a7.6,7.6,0,0,1,7.6-7.7h66.4a90.7,90.7,0,0,0-.9,12.8C245.6,367.6,245.6,368.7,245.7,369.7ZM180.4,335a7.7,7.7,0,0,1-7.1-7.1,7.8,7.8,0,0,1,7.1-8.7h78.5a91.9,91.9,0,0,0-7.6,15.8Zm.1-61.6a8.1,8.1,0,0,1,0-16.1H271a8.1,8.1,0,0,1,0,16.1Zm-.1-34.8a7.9,7.9,0,0,1,0-15.8H307.6a7.8,7.8,0,0,1,7.8,7.9,7.9,7.9,0,0,1-7.9,7.9Zm-7.9-69.7a8,8,0,0,1,8-8H271a8,8,0,0,1,0,16H180.5A8,8,0,0,1,172.5,168.9Zm135-26.7H180.4a7.9,7.9,0,0,1,0-15.8H307.5a7.9,7.9,0,0,1,0,15.8ZM108.4,273.3V222.8h50.5v50.5Zm50.5,45.9v50.6H108.4V319.2ZM108.4,177V126.4h50.5V177ZM340.6,445a79.8,79.8,0,1,1,79.8-79.8A79.8,79.8,0,0,1,340.6,445Z"/>
  </g>
</svg>
